X:8
T:Autumn Morning Rain
M:2/4
L:1/8
C:© Paul Gitlitz 2010
R:Polka
K:Em
"Em"(Be) (de)|(Be) (Ae)|"D"(f/g/f/e/) (de)|(fg) (af)|!
"Em"(Be) (de)|(Be) (Ae)|"D"(f/g/f/e/) (df)|1"A"A2 d^c:|2"A"A2ef|!
|:"Em"(g/a/g/f/) (ge)|"D"(f/g/f/e/) (de)|(fe) (de)|(fg) (af)|!
"Em"(g/a/g/f/) (ge)|"D"(f/g/f/e/) (de)|(fe) (de)|1"B7"(fg) (ef):|2"B7"(fg) "Em"e2|]
